X: 35626
T: Sail-Maker's Wife, The
R: jig
M: 6/8
K: Ddorian
C|:~D2d dcA|G2A FDC|~D2d dcA|GAc ~d3|
D2d dcA|G2A FDD|FGA cAG|1 FDC D2C:|2 FDC D3||
|:fed edc|ABc ~d3|f2d edc|AGE ~d3|
f2d edc|ABc AGE|~C2E {A}G2A|1 FDc ~d3:|2 FDC D2C||

